src/extras-openmoji/emergency/E093.svg

<?xml version="1.0" encoding="UTF-8"?>
<svg id="emoji" xmlns="http://www.w3.org/2000/svg" viewBox="0 0 72 72">
  <g id="grid">
    <path d="m68,4v64H4V4h64m4-4H0v72h72V0Z" fill="#b3b3b3"/>
    <path d="m12.923,10.9583h46.1539c1.0621,0,1.9231.861,1.9231,1.9231h0v46.1538c0,1.0621-.861,1.9231-1.9231,1.9231H12.9231c-1.0621,0-1.9231-.861-1.9231-1.9231h0V12.8813c0-1.062.861-1.923,1.923-1.923h0Z" fill="none" stroke="#00a5ff" stroke-miterlimit="10" stroke-width=".1"/>
    <rect x="16" y="4" width="40" height="64" rx="2.2537" ry="2.2537" fill="none" stroke="#00a5ff" stroke-miterlimit="10" stroke-width=".1"/>
    <rect x="4" y="16" width="64" height="40" rx="2.2537" ry="2.2537" fill="none" stroke="#00a5ff" stroke-miterlimit="10" stroke-width=".1"/>
    <circle cx="36" cy="36" r="29" fill="none" stroke="#00a5ff" stroke-miterlimit="10" stroke-width=".1"/>
  </g>
  <g id="color">
    <path d="m27.0006,11.248l.3517,10.1996s4.2205-4.7129,7.6673-2.673,10.692,6.0494,12.732,6.0494,3.1654-.0703,3.1654-.0703l-.1407-12.1692s-1.7586.4924-3.6578.211-6.9366-2.4435-7.5266-2.673c-1.2662-.4924-4.5019-1.8289-7.0342-1.2662s-5.557,2.3916-5.557,2.3916Z" fill="#fff"/>
    <polygon points="20.4201 42.1903 35.9515 34.0717 51.1298 42.1903 20.4201 42.1903" fill="#fff"/>
    <rect x="18.7028" y="46.6626" width="34.2336" height="12.1644" fill="#3f3f3f"/>
    <path d="m27.3106,19.74c2.1054-1.2183,4.5004-1.8462,6.9327-1.8174,4.5418,0,8.4376,6.247,14.3338,6.247.8692,0,1.3042-.3913,2.1814-.3913.7275,0,1.0179.52,1.0179,1.4385v1.5653c0,.7168-.783,1.531-3.0816,1.531-6.91,0-10.8055-3.9084-14.8143-3.9084-2.3906.0452-4.7105.8194-6.6491,2.219v-4.267l.0792-2.6167Z" fill="#d0cfce"/>
    <rect x="10.3144" y="62.3392" width="51.0104" height="3.5122" fill="#d0cfce"/>
    <rect x="12.6888" y="58.827" width="46.2616" height="3.5122" fill="#d0cfce"/>
    <polygon points="46.15 41.118 35.82 36.063 25.489 41.118 46.15 41.118" fill="#9b9b9a"/>
    <rect x="11.7839" y="43.1503" width="48.0713" height="3.5122" fill="#d0cfce"/>
    <rect x="17.383" y="46.6626" width="5.4289" height="12.1644" fill="#fff"/>
    <rect x="33.1051" y="46.6626" width="5.4289" height="12.1644" fill="#fff"/>
    <rect x="48.8273" y="46.6626" width="5.4289" height="12.1644" fill="#fff"/>
  </g>
  <g id="line">
    <path d="m27.3106,10.34c2.0697-1.3392,4.4684-2.0822,6.9327-2.1474,4.5418,0,8.4376,3.9373,14.3338,3.9373.8692,0,1.3042-.3912,2.1814-.3912.7275,0,1.0179.52,1.0179,1.4384v13.6052c0,.7168-.783,1.531-3.0816,1.531-6.91,0-10.8055-3.9084-14.8143-3.9084-2.3906.0452-4.7105.8194-6.6491,2.219v-4.2672" fill="none" stroke="#000" stroke-linecap="round" stroke-linejoin="round" stroke-width="2"/>
    <line x1="23.9719" y1="8.3472" x2="23.9719" y2="39.0334" fill="none" stroke="#000" stroke-linecap="round" stroke-miterlimit="10" stroke-width="2"/>
    <line x1="63.3248" y1="65.8515" x2="8.3144" y2="65.8515" fill="none" stroke="#000" stroke-linecap="round" stroke-linejoin="round" stroke-width="2"/>
    <line x1="11.3144" y1="62.3392" x2="60.3248" y2="62.3392" fill="none" stroke="#000" stroke-linecap="round" stroke-linejoin="round" stroke-width="2"/>
    <rect x="11.7839" y="43.1503" width="48.0713" height="3.5122" fill="none" stroke="#000" stroke-linecap="round" stroke-linejoin="round" stroke-width="2"/>
    <line x1="58.9504" y1="62.3392" x2="12.6888" y2="62.3392" fill="none" stroke="#000" stroke-linecap="round" stroke-linejoin="round" stroke-width="2"/>
    <line x1="13.6888" y1="58.827" x2="57.9504" y2="58.827" fill="none" stroke="#000" stroke-linecap="round" stroke-linejoin="round" stroke-width="2"/>
    <rect x="17.383" y="46.6626" width="5.4289" height="12.1644" fill="none" stroke="#000" stroke-linecap="round" stroke-linejoin="round" stroke-width="2"/>
    <rect x="33.1051" y="46.6626" width="5.4289" height="12.1644" fill="none" stroke="#000" stroke-linecap="round" stroke-linejoin="round" stroke-width="2"/>
    <rect x="48.8273" y="46.6626" width="5.4289" height="12.1644" fill="none" stroke="#000" stroke-linecap="round" stroke-linejoin="round" stroke-width="2"/>
    <polygon points="55.161 43.15 35.82 33.04 16.478 43.15 55.161 43.15" fill="none" stroke="#000" stroke-linecap="round" stroke-linejoin="round" stroke-width="2"/>
  </g>
</svg>

<svg id="emoji" viewBox="0 0 72 72" xmlns="http://www.w3.org/2000/svg">
  <g id="grid">
    <path fill="#b3b3b3" d="M68,4V68H4V4H68m4-4H0V72H72V0Z"/>
    <path fill="none" stroke="#00a5ff" stroke-miterlimit="10" stroke-width="0.1" d="M12.923,10.9583H59.0769A1.9231,1.9231,0,0,1,61,12.8814V59.0352a1.9231,1.9231,0,0,1-1.9231,1.9231H12.9231A1.9231,1.9231,0,0,1,11,59.0352V12.8813A1.923,1.923,0,0,1,12.923,10.9583Z"/>
    <rect x="16" y="4" rx="2.2537" ry="2.2537" width="40" height="64" fill="none" stroke="#00a5ff" stroke-miterlimit="10" stroke-width="0.1"/>
    <rect x="16" y="4" rx="2.2537" ry="2.2537" width="40" height="64" transform="translate(72) rotate(90)" fill="none" stroke="#00a5ff" stroke-miterlimit="10" stroke-width="0.1"/>
    <circle cx="36" cy="36" r="29" fill="none" stroke="#00a5ff" stroke-miterlimit="10" stroke-width="0.1"/>
  </g>
  <g id="color">
    <rect x="18.7028" y="46.6626" width="34.2336" height="12.1644" fill="#3f3f3f"/>
    <path fill="#d0cfce" d="M27.3106,19.74a13.5221,13.5221,0,0,1,6.9327-1.8174c4.5418,0,8.4376,6.247,14.3338,6.247.8692,0,1.3042-.3913,2.1814-.3913.7275,0,1.0179.52,1.0179,1.4385v1.5653c0,.7168-.783,1.531-3.0816,1.531-6.91,0-10.8055-3.9084-14.8143-3.9084a11.7385,11.7385,0,0,0-6.6491,2.219V22.3567Z"/>
    <rect x="10.3144" y="62.3392" width="51.0104" height="3.5122" fill="#d0cfce"/>
    <rect x="12.6888" y="58.827" width="46.2616" height="3.5122" fill="#d0cfce"/>
    <polygon fill="#9b9b9a" points="46.15 41.118 35.82 36.063 25.489 41.118 46.15 41.118"/>
    <rect x="11.7839" y="43.1503" width="48.0713" height="3.5122" fill="#d0cfce"/>
    <rect x="17.383" y="46.6626" width="5.4289" height="12.1644" fill="#fff"/>
    <rect x="33.1051" y="46.6626" width="5.4289" height="12.1644" fill="#fff"/>
    <rect x="48.8273" y="46.6626" width="5.4289" height="12.1644" fill="#fff"/>
  </g>
  <g id="line">
    <path fill="none" stroke="#000" stroke-linecap="round" stroke-linejoin="round" stroke-width="2" d="M27.3106,10.34a13.4156,13.4156,0,0,1,6.9327-2.1474c4.5418,0,8.4376,3.9373,14.3338,3.9373.8692,0,1.3042-.3912,2.1814-.3912.7275,0,1.0179.52,1.0179,1.4384V26.7823c0,.7168-.783,1.531-3.0816,1.531-6.91,0-10.8055-3.9084-14.8143-3.9084a11.7385,11.7385,0,0,0-6.6491,2.219V22.3567"/>
    <line x1="23.9719" x2="23.9719" y1="8.3472" y2="39.0334" fill="none" stroke="#000" stroke-linecap="round" stroke-miterlimit="10" stroke-width="2"/>
    <line x1="63.3248" x2="8.3144" y1="65.8515" y2="65.8515" fill="none" stroke="#000" stroke-linecap="round" stroke-linejoin="round" stroke-width="2"/>
    <line x1="11.3144" x2="60.3248" y1="62.3392" y2="62.3392" fill="none" stroke="#000" stroke-linecap="round" stroke-linejoin="round" stroke-width="2"/>
    <rect x="11.7839" y="43.1503" width="48.0713" height="3.5122" fill="none" stroke="#000" stroke-linecap="round" stroke-linejoin="round" stroke-width="2"/>
    <line x1="58.9504" x2="12.6888" y1="62.3392" y2="62.3392" fill="none" stroke="#000" stroke-linecap="round" stroke-linejoin="round" stroke-width="2"/>
    <line x1="13.6888" x2="57.9504" y1="58.827" y2="58.827" fill="none" stroke="#000" stroke-linecap="round" stroke-linejoin="round" stroke-width="2"/>
    <rect x="17.383" y="46.6626" width="5.4289" height="12.1644" fill="none" stroke="#000" stroke-linecap="round" stroke-linejoin="round" stroke-width="2"/>
    <rect x="33.1051" y="46.6626" width="5.4289" height="12.1644" fill="none" stroke="#000" stroke-linecap="round" stroke-linejoin="round" stroke-width="2"/>
    <rect x="48.8273" y="46.6626" width="5.4289" height="12.1644" fill="none" stroke="#000" stroke-linecap="round" stroke-linejoin="round" stroke-width="2"/>
    <polygon fill="none" stroke="#000" stroke-linecap="round" stroke-linejoin="round" stroke-width="2" points="55.161 43.15 35.82 33.04 16.478 43.15 55.161 43.15"/>
  </g>
</svg>
